packages/ui-icons/src/Basic/32/Crown-line_32.svg

<svg viewBox="0 0 40 40" xmlns="http://www.w3.org/2000/svg">
<path fill-rule="evenodd" clip-rule="evenodd" d="M18.0873 9H21.9136L26.5314 19.9515L26.5324 19.9539L26.534 19.9524L31.6001 15.13H33.9656L32.6612 31H7.3408L6.00209 15.13H8.39803L13.4649 19.9229L18.0873 9ZM19.4127 11L14.1545 23.4387L12.1127 21.3969L8.22785 17.7221L9.17919 29H30.8188L31.743 17.7552L27.9095 21.4043L27.906 21.4076L25.8076 23.3861L24.6886 20.7285L20.5864 11H19.4127Z" />
</svg>

<svg viewBox="0 0 40 40" xmlns="http://www.w3.org/2000/svg"><path fill-rule="evenodd" clip-rule="evenodd" d="M18.087 9h3.827l4.617 10.951.001.003.002-.002L31.6 15.13h2.366L32.66 31H7.341L6.002 15.13h2.396l5.067 4.793L18.087 9Zm1.326 2-5.258 12.439-2.042-2.042-3.885-3.675L9.179 29h21.64l.924-11.245-3.833 3.65-.004.003-2.098 1.978-1.12-2.657L20.587 11h-1.173Z"/></svg>
